X: 28
M: none
L: 1/8
K: F
cA |\
fg |\
agfd cA ag | fd cf A2 GF | Ac df cA cF | A2 G2 G2 AB |\
cA Bc defd | ba dg e3 g | fa fc Ac G>c | A2 F2 F2 |]


